X:857
T:Belfast Volenteers March  JBut.852
B:John Buttrey MS, poss. Lincolnshire, early 19thC
S:https://buttreymilitarysocialtunes1800.wordpress.com/
Z:Village Music Project 2019 Taz Tarry
N:See also JBut.933
Q:1/4=120
M:C|
L:1/8
K:G
GA|BGdB g2 fe|d2 d>d d2 c>B|ABcd edcB|A2 A>A A2 G>A|
BGdB g2 fe|d2 d>d d2 c>B|ABcd B2 A2|G2 G>G G2:|
|:GA|BGBG d2 cB|ADAD c2 BA|BGdB gdBG|A2 A>A A2 G>A|
BGdB g2 fe|d2 d>d d2 cB|ABcd B2 A2|G2 G>G G2:|

